X:219
T: Bing nuan ge
N: C1711
O: China, Taiwan, Xinzhu, Miaoli, Taoyuan
S: IV, 645]
R: Xiaodiao]
M: 2/4
L: 1/16
K: E
c3eB3G | G2GBceBd | c8
c3eB3G | G2c2BGF2 | G6z2
c3eB3G | G2GBceB2 | d2c4z2
c3eB2G2 | G2c2BGF2 | G6z2
ceBdc4 | GBF2G4
ceBdc4 | GBF2G4
G2B4c2 | G2GBGFE2 | C2E4F2 | G6z2
B3cGBGF | ECE2z2G2 | FGFEceGB | c2c6- | c4z4

